X:531
T:
S:Efter klockaren O. Laugren i Alva.
R:vals
O:Gotland, Alva
M:3/4
L:1/8
K:C
G2|(Gc) e2 a2|g4 e2|(Gc) e2 f2| e4 c2|(Gc) e2 f2|
e4 d2|(GB) d2 e2|d4 c2|(Gc) e2 a2|g4 e2|(Gc) e2 f2|
e4 c2|(Gc) e2 f2|e4 d2|d2 c2 d2|e4::g2|g3 (fdB)|
G2 f2 f2|f3 (ecG)|E2 e2 e2|e3 (ddd)|d2 e2 f2|a4 a2|
g6|b3 (afd)|B2 a2 a2|a3 (gec)|G2 g2 g2|g3 feB|
G3 BdB|(cB)(cd)(ed)|c4:|

